X: 1433
T: Ne Ararsan Sende Mevcut
C: III. Selim (İlhâmî)
O: Turkey
F: http://compmusic.upf.edu/node/140
N: mahur--tavsanca--duyek--ne_ararsam--iii_selim
N: makam= mahur
N: form= tavsanca
N: usul= duyek = 8/4
M: 8/4
L: 1/16
K: C ^9/8f   
Q: 1/4=168
%%MIDI tuningsystem comma53
f2 g4 fe ag fe d4  | d2 ^cd e2 de f2 ef g4  | \
w:   |   | 
z2 fg fg fe d4 ef ga  | 
w:   | 
^1/4b2 ba ag fa g3d ef g2  | f2 g4 fe ag fe d4  | 
w:   |   | 
d2 ^cd e2 de f2 ef g4  | z2 fg fg fe d4 ef ga  | 
w:   |   | 
^1/4b2 ba ag fa g3d ef g2  | f2 g4 fe ag fe d4  | 
w:   |   | 
eg =f2 f3/2g/ fe ed dc B^1/4A B2  | \
w:   | 
z2 GA Bc dc B2 BA dc BA  | 
w:   | 
G3A B3A/G/ G3c B^1/4A B2  | f2 g4 fe ag fe d4  | \
w:   |   | 
eg =f2 f3/2g/ fe ed dc B^1/4A B2  | 
w:   | 
z2 GA Bc dc B2 BA dc BA  | G3A B3A/G/ G3c B^1/4A B2  | 
w:   |   | 
B2 c2 c3/2d/ cB c2 Bc d4  | ^c2 d4 e=f ed cB c4  | \
w:   |   | 
z2 de f2 g2 f2 ed ef ga  | 
w:   | 
^1/4b2 ba ag fa g3d ef g2  | B2 c2 c3/2d/ cB c2 Bc d4  | 
w:   |   | 
^c2 d4 e=f ed cB c4  | z2 de f2 g2 f2 ed ef ga  | 
w:   |   | 
^1/4b2 ba ag fa g3d ef g2  | f2 g4 fe ag fe d4  | 
w:   |   | 
eg =f2 f3/2g/ fe ed dc B^1/4A B2  | \
w:   | 
z2 GA Bc dc B2 BA dc BA  | 
w:   | 
G3A B3A/G/ G4 G2 z2  | f2 g4 fe ag fe d4  | \
w:   |   | 
eg =f2 f3/2g/ fe ed dc B^1/4A B2  | 
w:   | 
z2 GA Bc dc B2 BA dc BA  | G3A B3A/G/ G4 G2 z2  | 
w:   |   | 
|


